X:1
T:James Gibb editions
T:That day of wrath, that dreadful day - Barnby
%%score [ ( 1 2 ) ( 3 4 ) ]
L:1/8
Q:1/4=63
M:4/4
K:Eb
V:1 treble nm="Midi_74"
V:2 treble 
V:3 bass nm="Midi_74"
V:4 bass 
V:1
"^That day of wrath, that dreadful day""^L.M.""^Joseph Barnby\n(1838-96)""^Tomaso di Celano\ntr. Walter Scott (1771-1832)" G2 | %1
 E2 D2 C2 C2 | C2 C2 C2 || c2 | A2 G2 F2 F2 | A3 A G2 ||[M:4/4] G2 | G2 G2 c2 c2 | d2 d2 =e2 || %9
"^1" c2 | c2 A2 F2 E2 | D6 C2 | C6 || F4 =E4 |] %14
V:2
 G2 | E2 D2 C2 G,2 | C2 B,2 A,2 || c2 | A2 G2 F2 C2 | =B,2 C2 D2 ||[M:4/4] =B,2 | C2 =B,2 C2 =E2 | %8
 !courtesy!_A2 A2 G2 || G2 | C2 C2 =B,2 C2 | (C4 =B,2) C2 | C6 || C4 C4 |] %14
V:3
"^I" G,2 | E,2 D,2 C,2 =E,2 | F,2 =E,2 F,2 || C2 | A,2 G,2 F,2 A,2 | F,2 F,2 F,2 ||[M:4/4] D,2 | %7
 =E,2 F,2 G,2 C2 | %8
"^1 That day of wrath, that dreadful day \nWhen heav'n and earth shall pass away! \nWhat pow'r shall be the sinner's stay? \nHow shall he meet that dreadful day? \n\n2 When, shriveling like a parched scroll, \nThe flaming heav'ns together roll; \nWhen louder yet, and yet more dread, \nSwells the high trump that wakes the dead; \n\n3 O on that day, that wrathful day \nWhen man to judgment wakes from clay, \nBe thou the trembling sinner's stay, \nThough heav'n and earth shall pass away." C2 =B,2 C2 || %9
 B,2 | A,2 F,2 A,2 G,2 | G,4 F,4 | E,6 || A,4 G,4 |] %14
V:4
 G,2 | E,2 D,2 C,2 B,,2 | A,,2 G,,2 F,,2 || C2 | A,2 G,2 F,2 E,2 | D,2 C,2 =B,,2 ||[M:4/4] G,,2 | %7
 C,2 D,2 =E,2 C,2 | F,2 F,2 C,2 || =E,2 | F,2 F,2 D,2 E,F, | G,4 G,,4 | C,6 || F,,4 C,4 |] %14

